usr/share/icons/biglinux-icons-material/24/actions/distribute-vertical-equal.svg

<svg xmlns="http://www.w3.org/2000/svg" viewBox="0 0 24 24"><path d="M8 4v6H4v1h13v-1h-2V4H8zm1 1h5v5H9V5zm7 2 2 3 2-3h-4zM4 13v1h2v6h9v-6h2v-1H4zm3 1h7v5H7v-5zm11 0-2 3h4l-2-3z" style="fill:currentColor;fill-opacity:1;stroke:none;color:#dedede"/></svg>

<svg xmlns="http://www.w3.org/2000/svg" viewBox="0 0 24 24">
  <defs id="defs3051">
    <style type="text/css" id="current-color-scheme">
      .ColorScheme-Text {
        color:#363636;
      }
      </style>
  </defs>
 <path style="fill:currentColor;fill-opacity:1;stroke:none" 
     d="M 8 4 L 8 10 L 4 10 L 4 11 L 9 11 L 15 11 L 17 11 L 17 10 L 15 10 L 15 4 L 8 4 z M 9 5 L 14 5 L 14 10 L 9 10 L 9 5 z M 16 7 L 18 10 L 20 7 L 16 7 z M 4 13 L 4 14 L 6 14 L 6 20 L 15 20 L 15 14 L 17 14 L 17 13 L 14 13 L 6 13 L 4 13 z M 7 14 L 14 14 L 14 19 L 7 19 L 7 14 z M 18 14 L 16 17 L 20 17 L 18 14 z "
     class="ColorScheme-Text"
     />
</svg>
